COLOR/action 16/16/draw-ellipse-whole.svg

<svg height="16" width="16" xmlns="http://www.w3.org/2000/svg"><circle cx="8" cy="8" fill="#1a7fd4" r="7"/><path d="m8 1a7 7 0 0 0 -7 7 7 7 0 0 0 .0097656.2929688 7 7 0 0 1 6.9902344-6.7929688 7 7 0 0 1 6.990234 6.7070312 7 7 0 0 0 .009766-.2070312 7 7 0 0 0 -7-7z" fill="#fff" opacity=".3"/><path d="m8.0000195 15a7 7 0 0 0 6.9999995-7.0000004 7 7 0 0 0 -.0098-.292968 7 7 0 0 1 -6.9902345 6.7929684 7 7 0 0 1 -6.990234-6.7070314 7 7 0 0 0 -.00977.207031 7 7 0 0 0 7 7.0000004z" opacity=".2"/></svg>

<?xml version="1.0" encoding="UTF-8" standalone="no"?>
<svg
   xmlns:dc="http://purl.org/dc/elements/1.1/"
   xmlns:cc="http://creativecommons.org/ns#"
   xmlns:rdf="http://www.w3.org/1999/02/22-rdf-syntax-ns#"
   xmlns:svg="http://www.w3.org/2000/svg"
   xmlns="http://www.w3.org/2000/svg"
   xmlns:sodipodi="http://sodipodi.sourceforge.net/DTD/sodipodi-0.dtd"
   xmlns:inkscape="http://www.inkscape.org/namespaces/inkscape"
   height="16"
   width="16"
   version="1.1"
   id="svg4"
   sodipodi:docname="draw-ellipse-whole.svg"
   inkscape:version="0.92.4 (5da689c313, 2019-01-14)">
  <metadata
     id="metadata10">
    <rdf:RDF>
      <cc:Work
         rdf:about="">
        <dc:format>image/svg+xml</dc:format>
        <dc:type
           rdf:resource="http://purl.org/dc/dcmitype/StillImage" />
      </cc:Work>
    </rdf:RDF>
  </metadata>
  <defs
     id="defs8" />
  <sodipodi:namedview
     pagecolor="#ffffff"
     bordercolor="#666666"
     borderopacity="1"
     objecttolerance="10"
     gridtolerance="10"
     guidetolerance="10"
     inkscape:pageopacity="0"
     inkscape:pageshadow="2"
     inkscape:window-width="1920"
     inkscape:window-height="1016"
     id="namedview6"
     showgrid="false"
     inkscape:zoom="14.75"
     inkscape:cx="-4.9152542"
     inkscape:cy="8"
     inkscape:window-x="0"
     inkscape:window-y="27"
     inkscape:window-maximized="1"
     inkscape:current-layer="svg4" />
  <circle
     cx="8"
     cy="8"
     fill="#1a7fd4"
     r="7"
     id="circle2" />
  <path
     d="M 8 1 A 7 7 0 0 0 1 8 A 7 7 0 0 0 1.0097656 8.2929688 A 7 7 0 0 1 8 1.5 A 7 7 0 0 1 14.990234 8.2070312 A 7 7 0 0 0 15 8 A 7 7 0 0 0 8 1 z "
     id="circle817"
     style="fill:#ffffff;fill-opacity:1;opacity:0.3" />
  <path
     style="opacity:0.2;fill:#000000;fill-opacity:1"
     id="path822"
     d="M 8.0000195,15 A 7,7 0 0 0 15.000019,7.9999996 7,7 0 0 0 14.990219,7.7070316 7,7 0 0 1 7.9999845,14.5 7,7 0 0 1 1.0097505,7.7929686 a 7,7 0 0 0 -0.00977,0.207031 7,7 0 0 0 7,7.0000004 z"
     inkscape:connector-curvature="0" />
</svg>
